app/img/icon-inst.svg

<svg width="22" height="22" viewBox="0 0 22 22" fill="none" xmlns="http://www.w3.org/2000/svg">

    <path fill-rule="evenodd" clip-rule="evenodd"
              d="M5.99662 0H16.0219C19.3266 0 22.0186 2.7011 22.0186 5.99831V16.0203C22.0186 19.3175 19.3266 22.0186 16.0219 22.0186H5.99662C2.69198 22 0 19.3175 0 16.0203V5.99831C0 2.7011 2.69198 0 5.99662 0ZM5.99662 2.25402H16.0219C18.0827 2.25402 19.7722 3.9492 19.7722 5.99831V16.0203C19.7722 18.0881 18.0827 19.7646 16.0219 19.7646H5.99662C3.93586 19.7646 2.24641 18.0694 2.24641 16.0203V5.99831C2.24641 3.93057 3.93586 2.25402 5.99662 2.25402ZM11.0093 16.7282C7.85316 16.7282 5.29114 14.1761 5.29114 11.0093C5.29114 7.84251 7.85316 5.29043 11.0093 5.29043C14.1654 5.29043 16.7274 7.84251 16.7274 11.0093C16.7089 14.1575 14.1654 16.7282 11.0093 16.7282ZM11.0093 7.54445C12.9215 7.54445 14.4624 9.0906 14.4624 11.0093C14.4624 12.928 12.9215 14.4742 11.0093 14.4742C9.09705 14.4742 7.53755 12.928 7.53755 11.0093C7.53755 9.0906 9.07848 7.54445 11.0093 7.54445ZM17.0802 6.16596C16.3932 6.16596 15.8363 5.60711 15.8363 4.91787C15.8363 4.22862 16.3932 3.66977 17.0802 3.66977C17.7671 3.66977 18.3241 4.22862 18.3241 4.91787C18.3426 5.60711 17.7857 6.16596 17.0802 6.16596Z"
              />


</svg>

<svg width="22" height="22" fill="none" xmlns="http://www.w3.org/2000/svg"><path clip-rule="evenodd" d="M5.997 0h10.025c3.305 0 5.997 2.701 5.997 5.998V16.02c0 3.297-2.692 5.999-5.997 5.999H5.997C2.692 22 0 19.318 0 16.02V5.998C0 2.701 2.692 0 5.997 0zm0 2.254h10.025c2.06 0 3.75 1.695 3.75 3.744V16.02a3.754 3.754 0 01-3.75 3.745H5.997c-2.061 0-3.75-1.696-3.75-3.745V5.998a3.754 3.754 0 013.75-3.744zm5.012 14.474a5.714 5.714 0 01-5.718-5.719A5.714 5.714 0 0111.01 5.29a5.714 5.714 0 015.718 5.72c-.018 3.148-2.562 5.718-5.718 5.718zm0-9.184a3.452 3.452 0 013.453 3.465 3.453 3.453 0 01-3.453 3.465 3.468 3.468 0 01-3.471-3.465 3.457 3.457 0 013.471-3.465zm6.071-1.378a1.246 1.246 0 01-1.244-1.248c0-.69.557-1.248 1.244-1.248.687 0 1.244.559 1.244 1.248.019.69-.538 1.248-1.244 1.248z"/></svg>
